X:10
T:Kitty's Gone a Milking
R:reel
O:Ireland
D:An Historic Recording of Irish Music
Z:Paul Stewart Cranford (P.S.C.), <http://www.cranfordpub.com>                     
L:1/8
Q:333
M:C|
K:G
(3(ABc)|d(G ~G2) d2 cA|d(G ~G2) FG (A/B/c)|d(G ~G2) d2 eg|fdcA G2:|
|:Bc|d(g ~g2) a(g ~g2)|d(g ~g2) d2 cA|d(g ~g2) a(g ~g2)|dcAB c2 Bc|
d(g ~g2) a(g ~g2)|d(g ~g2) d2 cA|defg abag|fdcA G2|]
